!!!!SEGMENT: pl-wtm--r-2548--001_hertz-michal--jak-wam-sie-podoba-no-1.krn
!!!cenid: 18xx:3108
!!!COM: Hertz, Michał
!!!COM-rismid: pe41023359
!!!CDT: 1844/09/28-~1918
!!!CNT: Polish
!!!GTL: Jak wam się podoba
!!!OTL: No. 1
!!!PDT:
!!!AGN:
!!!SMS-siglum: PL-Wtm
!!!SMS-shelfmark: R 2548
!!!SMS-shelfwork: 001 G
!!!SMS-variant:
!!!SMS-altvar:
!!!NIFC-rismid: 1001082244
!!!URL-scan: http://repozytorium.nifc.pl/skany/pl-wtm-nut--r2548
!!!ONB-nifc:
!!!key: F
!!!OMD: allegro moderato.
**kern	**kern	**dynam
*group1	*group1	*
*part2	*part1	*part1
*staff2	*staff1	*
*I"[Piano]	*I"[Piano]	*
*Ipiano	*Ipiano	*
*ICklav	*ICklav	*
*clefF4	*clefG2	*
*k[b-]	*k[b-]	*
*F:	*F:	*
*M4/4	*M4/4	*
*met(c)	*met(c)	*
=1	=1	=1
!LO:TX:t=P:problem:all\right:global	!	!
*2\right	*2\right	*
8.r	1r	.
16C\ 16c\	.	.
[<2C\ [>\2c	.	.
8.C\L] 8.c\]	.	.
32G\LL	.	.
32G\JJJ	.	.
=2	=2	=2
[<2C\ [>\2c	1r	.
8C\] 8c\]	.	.
8r	.	.
4r	.	.
=3	=3	=3
8.r	1r	.
!LO:TX:t=P:problem:all\middle:global	!	!
16C\ 16c\	.	.
[<2C\ [>\2c	.	.
8.C\L] 8.c\]	.	.
32G\LL	.	.
32G\JJJ	.	.
=4	=4	=4
[<2C\ [>\2c	2r	.
8C\] 8c\]	4r	.
8.r	.	.
.	8.r	.
8r	.	.
32G\LLL	32G/LLL 32g/	.
32G\JJJ	32G/JJJ 32g/	.
=5	=5	=5
!	!LO:TX:t=P:problem:all\middle:global	!
4..C/	4..c\ 4..cc\	.
32C/LLL	32c\LLL 32cc\	.
32C/JJJ	32c\JJJ 32cc\	.
4C/	4c\ 4cc\	.
8.C/L	8.c\L 8.cc\	.
16C/Jk	16c\Jk 16cc\	.
!!LO:LB:g=original
=6	=6	=6
!LO:TX:t=P:problem:all\right:global	!	!
8c\	4..e\ 4..cc\ 4..ee\	.
8r	.	.
[>4Bn\	.	.
.	32e\LLL 32cc\ 32ee\	.
.	32e\JJJ 32cc\ 32ee\	.
!LO:TX:t=P:problem:all\middle:global	!	!
8.B\L]	4e\ 4cc\ 4ee\	.
16c\Jk	.	.
(>16c\LL	8.e\L 8.cc\ 8.ee\	.
16B-X\	.	.
16A\	.	.
16G\JJ)	16e\Jk 16cc\ 16ee\	.
=7	=7	=7
(4.A\	8e\L 8cc\ 8ee\	.
.	8g\J 8ee\ 8gg\	.
!	!LO:TX:b:t=cre_scen_do:problem:dynamics with extention lines	!LO:HP:i:b:t=cre-scen-do:ext=ud
.	[<4e\ [<\4cc [>\4ee	<
!LO:TX:t=P:problem:8\left	!	!
8B-\)	.	.
4A\	4..e\] 4..cc\] 4..ee\]	.
4G\	.	.
.	32e\LLL 32cc\ 32ee\	.
.	32e\JJJ 32cc\ 32ee\	.
=8	=8	=8
!	!LO:TX:t=P:problem:8\right	!
(>4.A\	8e\L 8cc\ 8ee\	.
!	!LO:TX:t=P:problem:8\right	!
.	8g\J 8ee\ 8gg\	.
.	[<4e\ [<\4cc [>\4ee	.
8B-\)	.	.
!	!LO:TX:t=P:problem:4\left	!
4A\	4..e\] 4..cc\] 4..ee\]	.
4G\	.	.
.	32e\LLL 32cc\ 32ee\	.
.	32e\JJJ 32cc\ 32ee\	.
=9	=9	=9
(>8A\L	8.e\L 8.cc\ 8.ee\	.
8B-\)	.	.
.	16e\Jk 16cc\ 16ee\	.
!	!LO:TX:t=P:problem:4\right	!
8A\	[<4e\ [<\4cc [>\4ee	.
8G\J	.	.
*rep	*	*
(>8A\L	8.e\L] 8.cc\] 8.ee\]	.
8B-\)	.	.
.	16e\Jk 16cc\ 16ee\	.
!	!LO:TX:t=P:problem:all\right:global	!
8A\	[<4e\ [<\4cc [>\4ee	.
8G\J	.	.
*Xrep	*	*
=10	=10	=10
(>16A\LL	16.e\LL] 16.cc\] 16.ee\]	.
16B-\)	.	.
.	32e\JK 32cc\ 32ee\	.
16A\	[<8e\J [<\8cc [>\8ee	.
16G\JJ	.	.
(>16A\LL	16.e\LL] 16.cc\] 16.ee\]	[
16B-\)	.	.
.	32e\JK 32cc\ 32ee\	.
16A\	[8e\J [8cc\ [8ee\	.
16G\JJ	.	.
*rep	*	*
(>16A\LL	16.e\LL] 16.cc\] 16.ee\]	.
16B-\)	.	.
.	32e\JK 32cc\ 32ee\	.
16A\	[<8e\J [<\8cc [>\8ee	.
16G\JJ	.	.
(>16A\LL	16.e\LL] 16.cc\] 16.ee\]	.
16B-\)	.	.
.	32e\JK 32cc\ 32ee\	.
!	!LO:TX:t=P:problem:niewyraźny zapis	!
16A\	8e\J 8cc\	.
16G\JJ	.	.
*Xrep	*	*
!!LO:LB:g=original
=11	=11	=11
!LO:TX:t=P:problem:all\right:global	!LO:TX:t=P:problem:all\right:global	!LO:DY:rj
4F\ 4A\ 4c\	4f\ 4a\ 4cc\ 4ff\	ff
!	!LO:TX:t=P:problem:4\middle	!
4B-\ 4c\ 4e\	4g\ 4cc\ 4ee\	.
2A\ 2c\	(>4.f\ 4.cc\ 4.ff\	.
.	16g\LL 16gg\	.
.	16a\JJ) 16aa\	.
=12	=12	=12
!LO:TX:t=P:problem:all\middle:global	!LO:TX:t=P:problem:all\middle:global	!
(<4..G\ 4..c\ 4..e\	(>4..b-\ 4..cc\ 4..ee\ 4..bb-\	.
16F\) 16c\ 16f\	16a\) 16cc\ 16ff\ 16aa\	.
(<8E\L 8c\	(>8g\L 8b-\ 8cc\ 8gg\	.
8F\) 8c\	8a\) 8cc\ 8aa\	.
8D\ 8A\ 8d\	8f\ 8a\ 8ff\	.
8F\J 8A\	8d\J 8a\ 8dd\	.
=13	=13	=13
*	*2\right	*
2E^>\ 2G#X\ 2Bn\	2e^>\ 2g#X\ 2bn\ 2ee\	.
2A^>\ 2c#X\	2e^>\ 2a\ 2cc#X\ 2ee\	.
=14	=14	=14
!LO:TX:t=P:problem:all\right:global	!	!
8E\ 8G#X\ 8Bn\	8e\ 8g#X\ 8bn\ 8ee\	.
8r	8r	.
[<4C\ [>\4c	2e\ 2gn\ 2b-X\ 2ee\	.
8.C\L] 8.c\]	.	.
!LO:TX:t=P:problem:16\left	!	!
16Bn\Jk	.	.
*	*tremolo	*
!LO:TUP:a:problem:klamra łukowa z 3	!LO:TUP:a:problem:klamra łukowa z 3	!
12B-X\L	12e\L 12g\ 12cc\ 12ee\	.
12A\	12e\ 12g 12cc 12ee	.
12G#\J	12e\J 12g 12cc 12ee	.
*	*Xtremolo	*
=15	=15	=15
*^	*	*
!LO:TX:t=P:problem:all\middle:global	!LO:TX:t=P:problem:all\middle:global	!LO:TX:t=P:problem:all\middle:global	!
4F\ 4c\	2ryy	4f\ 4a\ 4cc\ 4ff\	.
!LO:TX:t=P:problem:4\right	!	!	!
4E\ 4c\	.	4g\ 4cc\ 4gg\	.
2c/	4.F\	4.a\ 4.cc\ 4.aa\	.
.	(>16G\LL	(>16b-\LL 16bb-\	.
.	16A\JJ)	16cc\JJ) 16ccc\	.
*v	*v	*	*
!!LO:LB:g=original
=16	=16	=16
!LO:TX:t=P:problem:all\middle:global	!LO:TX:t=P:problem:all\middle:global	!
(>4B-\	(>8dd\L 8ddd\	.
.	8ee\ 8eee\)	.
8A\L)	8ff\ 8fff\	.
8G\J	8gg\J 8ggg\	.
8F\L	8aa\L 8aaa\	.
16r	16r	.
16E\K	16ee\K 16gg#X\ 16bbn\	.
8A\	8ee\ 8aa\ 8ccc\	.
8G\J	8ggn\J 8bbn\ 8ddd\	.
=17	=17	=17
(>8.c\L	[<2ee\ [<\2gg [<\2ccc [>\2eee	.
16Bn\Jk	.	.
!LO:TUP:a:problem:klamra łukowa	!	!
12B-X\L	.	.
12A\	.	.
12G\J	.	.
!	!LO:TX:t=P:problem:8\right	!
4..c\)	8.ee\L] 8.gg\] 8.ccc\] 8.eee\]	.
!	!LO:TX:t=P:problem:16\right	!
.	16ff\Jk 16fff\	.
.	[<4gg\ [<\4ccc [<\4eee [>\4ggg	.
16G\	.	.
=18	=18	=18
(>8.c\L	2gg\] 2ccc\] 2eee\] 2ggg\]	.
16Bn\Jk	.	.
!LO:TUP:a:problem:klamra łukowa	!	!
12B-X\L	.	.
12A\	.	.
12G\J	.	.
4..c\)	8.gg\L 8.ccc\ 8.eee\ 8.ggg\	.
.	16aa\Jk 16aaa\	.
.	4bb-\ 4ggg\ 4bbb-\	.
!LO:TX:t=P:problem:16\left	!	!
16G\	.	.
=19	=19	=19
(>8G#X\L	4..b-\ 4..dd\ 4..bb-\	.
8F##X\J)	.	.
4G#\	.	.
.	16b-\ 16dd\ 16bb-\	.
!LO:TX:t=P:problem:4\right	!	!
4A\	[<4a\ [<\4cc#X [>\4aa	.
4AA/	16a\LL] 16cc#\] 16aa\]	.
.	(>16g\ 16ee\ 16gg\	.
!	!LO:TX:t=P:problem:16\right	!
.	16f\ 16dd\ 16ff\	.
.	16e\JJ) 16cc#\ 16ee\	.
!!LO:LB:g=original
=20	=20	=20
*	*^	*
!LO:TX:t=P:problem:all\middle:global	!LO:TX:t=P:problem:all\middle:global	!	!
(>4D\	(>8g\L 8gg\	4ryy	.
.	8f\ 8ff\	.	.
4F\)	8e\ 8ee\	4ryy	.
.	16r	.	.
.	16d\Jk) 16dd\	.	.
(>4G\	(<8cc/L	2d\	.
.	8b-/)	.	.
4B-\)	8a'</	.	.
.	8g'</J	.	.
*	*v	*v	*
=21	=21	=21
4..G\	4..f\ 4..b-\ 4..dd\	.
!	!LO:TX:t=P:problem:16\left	!
16G\	16f\ 16b-\ 16dd\	.
4c\	4e\ 4b-\ 4cc\	.
*tremolo	*	*
!LO:TUP:a:problem:klamra łukowa z kropkami	!LO:TUP:a:problem:klamra łukowa	!
12C/L	12e\L 12b-\ 12cc\	.
12C/	12e\ 12b-\ 12cc\	.
12C/J	12e\J 12b-\ 12cc\	.
*Xtremolo	*	*
=22	=22	=22
*rep	*rep	*
4..G\	4..f\ 4..b- 4..dd	.
16G\	16f\ 16b- 16dd	.
4c\	4e\ 4b- 4cc	.
!LO:TX:t=P:problem:klamra łukowa z kropkami	!LO:TX:t=P:problem:klamra łukowa z 3	!
12C/L	12e\L 12b- 12cc	.
12C/	12e\ 12b- 12cc	.
12C/J	12e\J 12b- 12cc	.
*Xrep	*Xrep	*
=23	=23	=23
!	!LO:TX:t=P:problem:all\right:global	!
4G\	(>8.f\L 8.b-\ 8.dd\	.
.	16f\K) 16b-\ 16dd-X\	.
8G\	8e\ 8b-\ 8cc\	.
4.G\	8B-\J 8b-\ 8cc#X\	.
!	!LO:TX:t=P:problem:8\middle	!
.	(>8.f\L 8.b-\ 8.ddn\	.
.	16f\K) 16b-\ 16dd-X\	.
8G\	8e\ 8b-\ 8ccn\	.
8r	8e\J 8b-\ 8cc#X\	.
!!LO:PB:g=original
=24	=24	=24
!	!LO:TX:t=P:problem:all\middle:global	!
[<2GG\ [>\2G	(>8.f\L 8.b-\ 8.ddn\	.
.	16f\K) 16b-\ 16dd-X\	.
.	8e\ 8b-\	.
.	(<8d#X\J (>\8ccn	.
!LO:TX:t=P:problem:all\right:global	!	!
8.GG\L] 8.G\]	8.e\L)) 8.b-\ 8.cc\	.
16FF\Jk 16F\	16f\Jk 16b-\ 16cc\	.
(>16EE\LL 16E\	(>16g\LL 16b-\ 16cc\	.
!LO:TX:t=P:problem:all\left:global	!	!
16DD\ 16D\	16g\ 16b-\ 16dd-\	.
16CC\ 16C\	16g\ 16b-\ 16ee\	.
16C\JJ) 16c\	16g\JJ) 16cc\ 16gg\	.
=25	=25	=25
!LO:TX:t=P:problem:all\middle:global	!LO:TX:t=P:problem:all\right:global	!
!LO:TUP:a:problem:klamra łukowa	!	!
12F\L	4..f\ 4..a\ 4..cc\ 4..ff\	.
12E\	.	.
12D\J	.	.
[>4D\	.	.
.	32f/LLL	.
.	32f/JJJ	.
8.D\L]	4f/	.
16D-X\Jk	.	.
*	*tremolo	*
!LO:TUP:b:problem:klamra łukowa	!LO:TUP:b:problem:klamra łukowa z 3	!
12C/L	12f/L	.
12BB-/	12f/	.
12AA/J	12f/J	.
*	*Xtremolo	*
=26	=26	=26
!LO:TX:t=P:problem:klamra łukowa z 3	!	!
12F\L	4..f/ 4..a/	.
12E\	.	.
12D\J	.	.
[4D\	.	.
.	32f/LLL 32a/	.
.	32f/JJJ 32a/	.
8.D\L]	4f/ 4a/	.
16D-X\Jk	.	.
*	*tremolo	*
!LO:TUP:b:problem:klamra łukowa	!LO:TUP:b:problem:klamra łukowa z 3	!
12C/L	12f/L 12a/	.
12BB-/	12f/ 12a	.
12AA/J	12f/J 12a	.
*	*Xtremolo	*
=27	=27	=27
!LO:TUP:a:problem:klamra łukowa	!	!
12F\L	4..f\ 4..a\ 4..cc\	.
12E\	.	.
12E-X\J	.	.
[>4D\	.	.
.	32f/LLL 32a/	.
.	32f/JJJ 32a/	.
!LO:TUP:a:problem:klamra łukowa	!	!
12D\L]	4f/ 4b-/	.
12C\	.	.
12BB-\J	.	.
(>8.BB-\L	8.f/L 8.b-/ 8.dd/	.
16D\Jk)	16f/Jk 16b-/	.
!!LO:LB:g=original
=28	=28	=28
*2\right	*	*
*tremolo	*	*
!	!LO:TX:t=P:problem:8\middle	!
(>32FF\LLL	8f\ 8a\ 8cc\ 8ff\	.
32F\	.	.
32FF\	.	.
32F\	.	.
32FF\	8r	.
32F\	.	.
32FF\	.	.
32F\	.	.
32FF\	[<4c/ [</4f [>/4a	.
32F\	.	.
32FF\	.	.
32F\	.	.
32FF\	.	.
32F\	.	.
32FF\	.	.
32F\JJJ)	.	.
*Xtremolo	*	*
8FF/	8c/] 8f/] 8a/]	.
8r	8r	.
4r	4r	.
==	==	==
*-	*-	*-
!!!system-decoration: ({g1})
!!!ENC: Anastazja Marusiak
!!!END: 2021-11-02
!!!EED: Jędrzej Mróz
!!!ESR: 2021-11-05
!!!RDF**kern: > = above
!!!RDF**kern: < = below
